icons/compose-16.svg

<svg width="16" height="16" viewBox="0 0 16 16" fill="none" xmlns="http://www.w3.org/2000/svg">
<g clip-path="url(#clip0_28_71)">
<path d="M14.515 0.45602C14.3706 0.311491 14.1991 0.196836 14.0103 0.118611C13.8216 0.0403854 13.6193 0.00012207 13.415 0.00012207C13.2107 0.00012207 13.0084 0.0403854 12.8196 0.118611C12.6309 0.196836 12.4594 0.311491 12.315 0.45602L6.57998 6.19002C6.39292 6.37705 6.25663 6.60867 6.18398 6.86302L5.35898 9.75302C5.32648 9.8673 5.3251 9.98818 5.35497 10.1032C5.38485 10.2182 5.44489 10.3231 5.5289 10.4071C5.61291 10.4911 5.71784 10.5512 5.83283 10.581C5.94782 10.6109 6.0687 10.6095 6.18298 10.577L9.07298 9.75102C9.32698 9.67902 9.55798 9.54202 9.74498 9.35502L15.48 3.62102C15.7716 3.32923 15.9355 2.93357 15.9355 2.52102C15.9355 2.10847 15.7716 1.71281 15.48 1.42102L14.515 0.45602ZM13.258 1.39802C13.2786 1.3774 13.3031 1.36104 13.33 1.34988C13.3569 1.33872 13.3858 1.33298 13.415 1.33298C13.4441 1.33298 13.473 1.33872 13.4999 1.34988C13.5269 1.36104 13.5514 1.3774 13.572 1.39802L14.537 2.36402C14.5576 2.38464 14.574 2.40911 14.5851 2.43605C14.5963 2.46299 14.602 2.49186 14.602 2.52102C14.602 2.55018 14.5963 2.57905 14.5851 2.60599C14.574 2.63293 14.5576 2.6574 14.537 2.67802L13.415 3.80002L12.135 2.52002L13.258 1.39802ZM11.193 3.46402L12.472 4.74302L8.80198 8.41302C8.77527 8.43956 8.74223 8.45884 8.70598 8.46902L6.96998 8.96502L7.46598 7.22902C7.47598 7.19302 7.49598 7.15902 7.52298 7.13302L11.193 3.46402Z" fill="black"/>
<path d="M7 1.75H1.75C1.19772 1.75 0.75 2.19772 0.75 2.75V14.25C0.75 14.8023 1.19772 15.25 1.75 15.25H13.25C13.8023 15.25 14.25 14.8023 14.25 14.25V8.5" stroke="black" stroke-width="1.5" stroke-linecap="round"/>
</g>
<defs>
<clipPath id="clip0_28_71">
<rect width="16" height="16" fill="white"/>
</clipPath>
</defs>
</svg>

<svg xmlns="http://www.w3.org/2000/svg" width="16" height="16" fill="none"><g clip-path="url(#a)"><path fill="#000" d="M14.515.456a1.555 1.555 0 0 0-2.2 0L6.58 6.19a1.556 1.556 0 0 0-.396.673l-.825 2.89a.667.667 0 0 0 .824.824l2.89-.826c.254-.072.485-.209.672-.396l5.735-5.734a1.556 1.556 0 0 0 0-2.2l-.965-.965Zm-1.257.942a.222.222 0 0 1 .314 0l.965.966a.221.221 0 0 1 0 .314L13.415 3.8l-1.28-1.28 1.123-1.122Zm-2.065 2.066 1.279 1.279-3.67 3.67a.221.221 0 0 1-.096.056l-1.736.496.496-1.736c.01-.036.03-.07.057-.096l3.67-3.669Z"/><path stroke="#000" stroke-linecap="round" stroke-width="1.5" d="M7 1.75H1.75a1 1 0 0 0-1 1v11.5a1 1 0 0 0 1 1h11.5a1 1 0 0 0 1-1V8.5"/></g><defs><clipPath id="a"><path fill="#fff" d="M0 0h16v16H0z"/></clipPath></defs></svg>
